!!!OTL: JETZT GEH ICH ANS BRUENNELE
!!!ARE: Europa, Mitteleuropa, Deutschland
!!!SCT: F0861
!!!YEM: Copyright 1995, estate of Helmut Schaffrath.
**kern
*ICvox
*Ivox
*M3/8
*k[f#]
*G:
{8d
=1
8.g
16f#
16g
16a
=2
8.b
16cc
8b}
=3
{16b
16a
8a
16a
16b
=4
8g
8r}
{8g
=5
8.b
16a
16b
16cc
=6
8.dd
16ee
8dd}
=7
{16dd
16cc
8cc
16cc
16dd
=8
8b
8r}
{8dd
=9
16dd
16cc
8cc
16cc
16cc
=10
8b
16dd
16cc
8b}
=11
{8a
8a
8a
=12
8b
8r}
{8dd
=13
16dd
16cc
8cc
16cc
16cc
=14
8b
16dd
16cc
8b}
=15
{8a
8a
8a
=16
8b
8r}
==
!!!AGN: erzaehlendes Volks - Lied, Ballade, Liebe
!!!ONB: ESAC (Essen Associative Code) Database: FINK
!!!AMT: simple triple
!!!AIN: vox
!!!EED: Helmut Schaffrath
!!!EEV: 1.0
*-
